X: 39225
T: Ta Skelp Auld Hornie Awa'
R: polka
M: 2/4
K: Dmajor
|:D>E FG|Ad fd|ce gc|d/c/d/e/ fd|
DD/E/ F>G|Ad f2|ce g/f/e/c/|df d2:|
|:AF/A/ dF|AG G/F/G/^G/|A^G/A/ =gc|ed d/c/d/B/|
[1 AF/A/ d>F|AG G2|A^G/A/ a/=g/f/c/|ed d/c/B/^A/:|
[2 AF/A/ d>F|AG G/F/G/^G/|A/^G/A/e/ a/=g/f/e/|dA D2||

